public/img/contact/address.svg

<svg width="48" height="48" viewBox="0 0 48 48" fill="none" xmlns="http://www.w3.org/2000/svg">
<rect x="1" y="1" width="46" height="46" rx="23" fill="white"/>
<rect x="1" y="1" width="46" height="46" rx="23" stroke="#303A4D" stroke-width="2"/>
<path d="M24 12C19.2073 12 15.3081 15.8992 15.3081 20.6918C15.3081 26.6397 23.0865 35.3715 23.4177 35.7404C23.7287 36.0868 24.2718 36.0862 24.5823 35.7404C24.9135 35.3715 32.6919 26.6397 32.6919 20.6918C32.6918 15.8992 28.7927 12 24 12ZM24 25.065C21.5887 25.065 19.6269 23.1032 19.6269 20.6918C19.6269 18.2805 21.5887 16.3188 24 16.3188C26.4113 16.3188 28.373 18.2805 28.373 20.6919C28.373 23.1032 26.4113 25.065 24 25.065Z" fill="#303A4D"/>
</svg>

<svg width="48" height="48" fill="none" xmlns="http://www.w3.org/2000/svg"><rect x="1" y="1" width="46" height="46" rx="23" fill="#fff"/><rect x="1" y="1" width="46" height="46" rx="23" stroke="#303A4D" stroke-width="2"/><path d="M24 12c-4.793 0-8.692 3.9-8.692 8.692 0 5.948 7.779 14.68 8.11 15.048a.783.783 0 0 0 1.164 0c.331-.369 8.11-9.1 8.11-15.048 0-4.793-3.9-8.692-8.692-8.692zm0 13.065a4.378 4.378 0 0 1-4.373-4.373A4.378 4.378 0 0 1 24 16.319a4.378 4.378 0 0 1 4.373 4.373A4.378 4.378 0 0 1 24 25.065z" fill="#303A4D"/></svg>
